Adwaita++/actions/symbolic/application-menu-symbolic.svg

<svg height="16" width="16" xmlns="http://www.w3.org/2000/svg">
  <path d="m6.25 1-.16 1.84a5.5 5.5 0 0 0 -1.6.93l-1.68-.79-1.75 3.03 1.52 1.06a5.5 5.5 0 0 0 -.08.93 5.5 5.5 0 0 0 .08.93l-1.52 1.05 1.75 3.03 1.67-.79a5.5 5.5 0 0 0 1.61.93l.16 1.85h3.5l.15-1.85a5.5 5.5 0 0 0 1.61-.93l1.68.79 1.75-3.03-1.53-1.06a5.5 5.5 0 0 0 .09-.92 5.5 5.5 0 0 0 -.08-.94l1.52-1.05-1.75-3.03-1.68.79a5.5 5.5 0 0 0 -1.61-.93l-.15-1.84zm1.75 5a2 2 0 0 1 2 2 2 2 0 0 1 -2 2 2 2 0 0 1 -2-2 2 2 0 0 1 2-2z" fill="#474747"/>
</svg>

<svg xmlns="http://www.w3.org/2000/svg" width="16" height="16" version="1.1">
 <path style="fill:#474747" d="M 6.25,1 6.09,2.84 A 5.5,5.5 0 0 0 4.49,3.77 L 2.81,2.98 1.06,6.01 2.58,7.07 A 5.5,5.5 0 0 0 2.5,8 5.5,5.5 0 0 0 2.58,8.93 L 1.06,9.98 2.81,13.01 4.48,12.22 A 5.5,5.5 0 0 0 6.09,13.15 L 6.25,15 H 9.75 L 9.9,13.15 A 5.5,5.5 0 0 0 11.51,12.22 L 13.19,13.01 14.94,9.98 13.41,8.92 A 5.5,5.5 0 0 0 13.5,8 5.5,5.5 0 0 0 13.42,7.06 L 14.94,6.01 13.19,2.98 11.51,3.77 A 5.5,5.5 0 0 0 9.9,2.84 L 9.75,1 Z M 8,6 A 2,2 0 0 1 10,8 2,2 0 0 1 8,10 2,2 0 0 1 6,8 2,2 0 0 1 8,6 Z"/>
</svg>
